svg/charges/christian/crozier.svg

<?xml version="1.0" encoding="UTF-8" standalone="no"?>
<svg
   xmlns:dc="http://purl.org/dc/elements/1.1/"
   xmlns:cc="http://creativecommons.org/ns#"
   xmlns:rdf="http://www.w3.org/1999/02/22-rdf-syntax-ns#"
   xmlns:svg="http://www.w3.org/2000/svg"
   xmlns="http://www.w3.org/2000/svg"
   version="1.1"
   width="88.82964"
   height="351"
   id="svg37">
  <defs
     id="defs5">
    <clipPath
       id="artboard_clip_path">
      <path
         d="M 68.67036 63 L 157.5 63 L 157.5 414 L 68.67036 414 Z"
         id="path2" />
    </clipPath>
  </defs>
  <metadata
     id="metadata7"> Produced by OmniGraffle 7.7.1 
    <dc:date>2018-03-13 06:46:41 +0000</dc:date>
<dc:title>Traceable heraldic art http://heraldicart.org/credits.html</dc:title>
<rdf:RDF>
  <cc:Work
     rdf:about="">
    <dc:format>image/svg+xml</dc:format>
    <dc:type
       rdf:resource="http://purl.org/dc/dcmitype/StillImage" />
    <dc:title></dc:title>
  </cc:Work>
</rdf:RDF>
</metadata>
  <g
     id="Crozier"
     fill-opacity="1"
     stroke-dasharray="none"
     stroke="none"
     stroke-opacity="1"
     fill="#ffff00"
     transform="translate(-68.670357,-62.999999)">
    <title
       id="title9">Crozier</title>
    <g
       id="Crozier: Layer 2">
      <title
         id="title11">Layer 2</title>
      <g
         id="Group_3">
        <g
           id="Graphic_10">
          <path
             d="M 99.79554,65.8687 C 85.17071,72.50264 74.1644,87.88133 74.1644,101.90308 c 0,5.88009 1.0554,8.89552 6.03085,16.28332 5.88009,8.74474 7.53858,13.87097 4.52315,13.87097 -0.75386,0 -1.50772,-1.20617 -1.50772,-2.86466 0,-3.92006 -3.76928,-6.63394 -7.53857,-5.42777 -2.26157,0.75386 -3.01543,2.26157 -3.01543,5.72932 0,12.6648 12.96635,16.73563 22.61572,7.08625 4.37237,-4.37237 3.76929,-11.00631 -2.41234,-22.31417 -4.2216,-7.68934 -5.277,-11.00632 -4.67392,-14.92638 1.96003,-11.76017 15.37869,-21.560315 26.53578,-19.14797 3.01543,0.60308 6.3324,1.20617 7.53857,1.50771 4.67391,0.90463 9.95092,6.48318 11.15709,11.76018 3.01543,12.36326 -1.20617,22.46494 -15.98178,38.59749 -7.99088,8.74475 -10.70477,13.41866 -12.36325,20.65569 -0.45232,2.71389 -1.65849,4.97546 -2.41235,4.97546 -0.75386,0 -1.35694,1.65848 -1.35694,3.76928 0,2.1108 0.45231,3.7693 1.20617,3.7693 0.60309,0 1.20617,19.90182 1.35694,44.3268 0.15078,37.08978 -0.15077,44.47758 -1.96003,45.23144 -2.71388,1.0554 -2.71388,4.52314 0.15078,6.93549 1.96003,1.65847 2.26157,11.30787 2.26157,69.65641 0,67.0933 0,67.99793 3.31697,75.23496 1.96003,4.07083 4.2216,7.3878 5.12623,7.3878 0.90463,0 3.61851,-2.86466 6.18163,-6.48317 l 4.67391,-6.3324 0.15077,-69.2041 c 0,-60.45936 0.30155,-69.50565 2.41235,-71.76723 2.1108,-2.26156 2.1108,-2.71388 0,-4.52313 -1.96003,-1.65849 -2.26157,-8.29243 -2.26157,-46.13607 0,-30.30506 0.45231,-44.47758 1.65848,-45.23144 0.90464,-0.45231 1.35694,-2.71388 0.90464,-4.82468 -1.05541,-5.88009 1.0554,-9.95092 10.85554,-20.50492 11.6094,-12.51403 14.47406,-18.24335 16.13254,-32.56664 0.45232,-4.2216 -2.71388,-19.14797 -5.277,-23.67112 C 145.17775,77.02579 134.9253,70.24107 123.31589,66.471786 109.44492,61.94864 108.38952,61.94864 99.79554,65.8687 Z"
             fill="#cccccc"
             id="path13" />
        </g>
        <g
           id="Graphic_9">
          <path
             d="m 119.99892,68.88413 c 11.30786,2.41234 21.71109,9.34783 26.08346,17.18795 2.71389,4.82468 3.46775,8.4432 3.46775,17.79103 0,14.47406 -2.41235,19.75106 -15.83101,34.22512 -5.277,5.88009 -9.95092,12.51403 -10.554,15.07714 -0.90463,4.22161 -1.35694,4.52315 -8.4432,4.52315 -4.07083,0 -7.3878,-0.45232 -7.3878,-1.20617 0,-5.72932 4.52314,-13.72021 12.81557,-22.76649 12.66481,-13.72021 14.62483,-17.03718 16.73563,-27.13886 2.86466,-14.62484 -2.26157,-23.97267 -15.831,-28.49581 -10.40323,-3.61852 -19.75106,-1.20617 -28.34503,7.23703 -8.89552,8.74474 -9.95092,18.69566 -3.01543,29.70198 7.23703,11.45863 7.08626,18.39411 -0.75386,22.46494 -3.61852,1.80926 -5.42777,1.96003 -8.14166,0.75386 -3.92006,-1.80926 -6.3324,-8.59397 -3.92006,-11.00632 1.20617,-1.20617 1.96003,-0.45231 2.56312,2.26158 1.50771,5.57854 4.67391,7.99088 7.53857,5.57854 3.31697,-2.71389 2.71389,-7.99089 -1.50771,-13.7202 -11.60941,-15.83101 -10.85555,-29.0989 2.56311,-43.8745 4.67392,-5.12623 18.24335,-12.21249 21.56032,-11.157086 0.90463,0.301546 5.57854,1.356946 10.40323,2.563116 z"
             fill="#ff0000"
             id="path16" />
        </g>
        <g
           id="Graphic_8">
          <path
             d="m 122.86358,161.4578 c 0.15077,0.90463 -3.92006,1.6585 -9.04629,1.96003 -11.6094,0.60309 -12.96635,-2.26157 -1.50771,-3.1662 9.80014,-0.60308 10.25245,-0.60308 10.554,1.20617 z"
             fill="#ff0000"
             id="path19" />
        </g>
        <g
           id="Graphic_7">
          <path
             d="m 120.90355,210.45853 v 43.72372 h -6.78472 -6.78471 l -0.15077,-29.09889 c -0.15078,-28.94812 -0.15078,-37.84364 0,-51.2623 l 0.15077,-7.08626 h 6.78471 6.78472 z"
             fill="#ff0000"
             id="path22" />
        </g>
        <g
           id="Graphic_6">
          <path
             d="m 123.46666,259.00694 c -0.45231,1.35694 -3.31697,1.80926 -9.4986,1.50771 -13.26789,-0.75385 -13.87097,-3.31697 -0.75386,-3.31697 8.14166,0 10.85555,0.45232 10.25246,1.80926 z"
             fill="#ff0000"
             id="path25" />
        </g>
        <g
           id="Graphic_5">
          <path
             d="m 120.90355,331.0757 v 67.99793 l -6.78472,-0.30153 -6.78471,-0.45233 v -67.54562 -67.54561 h 6.78471 6.78472 z"
             fill="#ff0000"
             id="path28" />
        </g>
        <g
           id="Graphic_4">
          <path
             d="m 119.39583,401.18443 c 0,1.50771 -4.82468,8.29243 -6.03085,8.29243 -0.90463,0 -4.52315,-6.63396 -4.52315,-8.29243 0,-0.45233 2.41235,-0.75386 5.277,-0.75386 2.86466,0 5.277,0.30153 5.277,0.75386 z"
             fill="#ff0000"
             id="path31" />
        </g>
      </g>
    </g>
  </g>
  <circle
     style="fill:#3250b0;stroke-width:3;stroke-linecap:round;stroke-linejoin:round;stroke-miterlimit:3"
     id="hold-point"
     cx="45.29026"
     cy="208.28662"
     r="10.1055" />
</svg>

<?xml version="1.0" encoding="UTF-8" standalone="no"?>
<!DOCTYPE svg PUBLIC "-//W3C//DTD SVG 1.1//EN" "http://www.w3.org/Graphics/SVG/1.1/DTD/svg11.dtd">
<svg xmlns:dc="http://purl.org/dc/elements/1.1/" xmlns:xl="http://www.w3.org/1999/xlink" version="1.1" xmlns="http://www.w3.org/2000/svg" viewBox="68.67036 63 88.82964 351" width="88.82964" height="351">
  <defs>
    <clipPath id="artboard_clip_path">
      <path d="M 68.67036 63 L 157.5 63 L 157.5 414 L 68.67036 414 Z"/>
    </clipPath>
  </defs>
  <metadata> Produced by OmniGraffle 7.7.1 
    <dc:date>2018-03-13 06:46:41 +0000</dc:date><dc:title>Traceable heraldic art http://heraldicart.org/credits.html</dc:title>
  </metadata>
  <g id="Crozier" fill-opacity="1" stroke-dasharray="none" stroke="none" stroke-opacity="1" fill="#ffff00">
    <title>Crozier</title>
    <g id="Crozier: Layer 2" >
      <title>Layer 2</title>
      <g id="Group_3">
        <g id="Graphic_10">
          <path d="M 99.79554 65.8687 C 85.17071 72.50264 74.1644 87.88133 74.1644 101.90308 C 74.1644 107.78317 75.2198 110.7986 80.19525 118.1864 C 86.07534 126.93114 87.73383 132.05737 84.7184 132.05737 C 83.96454 132.05737 83.21068 130.8512 83.21068 129.19271 C 83.21068 125.27265 79.4414 122.55877 75.67211 123.76494 C 73.41054 124.5188 72.65668 126.02651 72.65668 129.49426 C 72.65668 142.15906 85.62303 146.22989 95.2724 136.58051 C 99.64477 132.20814 99.04169 125.5742 92.86006 114.26634 C 88.63846 106.577 87.58306 103.26002 88.18614 99.33996 C 90.14617 87.57979 103.56483 77.779645 114.72192 80.19199 C 117.73735 80.79507 121.05432 81.39816 122.26049 81.6997 C 126.9344 82.60433 132.21141 88.18288 133.41758 93.45988 C 136.43301 105.82314 132.21141 115.92482 117.4358 132.05737 C 109.44492 140.80212 106.73103 145.47603 105.07255 152.71306 C 104.62023 155.42695 103.41406 157.68852 102.6602 157.68852 C 101.90634 157.68852 101.30326 159.347 101.30326 161.4578 C 101.30326 163.5686 101.75557 165.2271 102.50943 165.2271 C 103.11252 165.2271 103.7156 185.12892 103.86637 209.5539 C 104.01715 246.64368 103.7156 254.03148 101.90634 254.78534 C 99.19246 255.84074 99.19246 259.30848 102.05712 261.72083 C 104.01715 263.3793 104.31869 273.0287 104.31869 331.37724 C 104.31869 398.47054 104.31869 399.37517 107.63566 406.6122 C 109.59569 410.68303 111.85726 414 112.76189 414 C 113.66652 414 116.3804 411.13534 118.94352 407.51683 L 123.61743 401.18443 L 123.7682 331.98033 C 123.7682 271.52097 124.06975 262.47468 126.18055 260.2131 C 128.29135 257.95154 128.29135 257.49922 126.18055 255.68997 C 124.22052 254.03148 123.91898 247.39754 123.91898 209.5539 C 123.91898 179.24884 124.37129 165.07632 125.57746 164.32246 C 126.4821 163.87015 126.9344 161.60858 126.4821 159.49778 C 125.42669 153.61769 127.5375 149.54686 137.33764 138.99286 C 148.94704 126.47883 151.8117 120.74951 153.47018 106.42622 C 153.9225 102.20462 150.7563 87.27825 148.19318 82.7551 C 145.17775 77.02579 134.9253 70.24107 123.31589 66.471786 C 109.44492 61.94864 108.38952 61.94864 99.79554 65.8687 Z" fill="#cccccc"/>
        </g>
        <g id="Graphic_9">
          <path d="M 119.99892 68.88413 C 131.30678 71.29647 141.71001 78.23196 146.08238 86.07208 C 148.79627 90.89676 149.55013 94.51528 149.55013 103.86311 C 149.55013 118.33717 147.13778 123.61417 133.71912 138.08823 C 128.44212 143.96832 123.7682 150.60226 123.16512 153.16537 C 122.26049 157.38698 121.80818 157.68852 114.72192 157.68852 C 110.65109 157.68852 107.33412 157.2362 107.33412 156.48235 C 107.33412 150.75303 111.85726 142.76214 120.14969 133.71586 C 132.8145 119.99565 134.77452 116.67868 136.88532 106.577 C 139.74998 91.95216 134.62375 82.60433 121.05432 78.08119 C 110.65109 74.46267 101.30326 76.87502 92.70929 85.31822 C 83.81377 94.06296 82.75837 104.01388 89.69386 115.0202 C 96.93089 126.47883 96.78012 133.41431 88.94 137.48514 C 85.32148 139.2944 83.51223 139.44517 80.79834 138.239 C 76.87828 136.42974 74.46594 129.64503 76.87828 127.23268 C 78.08445 126.02651 78.83831 126.78037 79.4414 129.49426 C 80.94911 135.0728 84.11531 137.48514 86.97997 135.0728 C 90.29694 132.35891 89.69386 127.08191 85.47226 121.3526 C 73.86285 105.52159 74.61671 92.2537 88.03537 77.4781 C 92.70929 72.35187 106.27872 65.26561 109.59569 66.321014 C 110.50032 66.62256 115.17423 67.67796 119.99892 68.88413 Z" fill="#ff0000"/>
        </g>
        <g id="Graphic_8">
          <path d="M 122.86358 161.4578 C 123.01435 162.36243 118.94352 163.1163 113.81729 163.41783 C 102.20789 164.02092 100.85094 161.15626 112.30958 160.25163 C 122.10972 159.64855 122.56203 159.64855 122.86358 161.4578 Z" fill="#ff0000"/>
        </g>
        <g id="Graphic_7">
          <path d="M 120.90355 210.45853 L 120.90355 254.18225 L 114.11883 254.18225 L 107.33412 254.18225 L 107.18335 225.08336 C 107.03257 196.13524 107.03257 187.23972 107.18335 173.82106 L 107.33412 166.7348 L 114.11883 166.7348 L 120.90355 166.7348 L 120.90355 210.45853 Z" fill="#ff0000"/>
        </g>
        <g id="Graphic_6">
          <path d="M 123.46666 259.00694 C 123.01435 260.36388 120.14969 260.8162 113.96806 260.51465 C 100.70017 259.7608 100.09709 257.19768 113.2142 257.19768 C 121.35586 257.19768 124.06975 257.65 123.46666 259.00694 Z" fill="#ff0000"/>
        </g>
        <g id="Graphic_5">
          <path d="M 120.90355 331.0757 L 120.90355 399.07363 L 114.11883 398.7721 L 107.33412 398.31977 L 107.33412 330.77415 L 107.33412 263.22854 L 114.11883 263.22854 L 120.90355 263.22854 L 120.90355 331.0757 Z" fill="#ff0000"/>
        </g>
        <g id="Graphic_4">
          <path d="M 119.39583 401.18443 C 119.39583 402.69214 114.57115 409.47686 113.36498 409.47686 C 112.46035 409.47686 108.84183 402.8429 108.84183 401.18443 C 108.84183 400.7321 111.25418 400.43057 114.11883 400.43057 C 116.98349 400.43057 119.39583 400.7321 119.39583 401.18443 Z" fill="#ff0000"/>
        </g>
      </g>
    </g>
  </g>
</svg>
